svgs/thin/lamp-desk.svg

<svg xmlns="http://www.w3.org/2000/svg" viewBox="0 0 512 512"><!--! Font Awesome Pro 6.3.0 by @fontawesome - https://fontawesome.com License - https://fontawesome.com/license (Commercial License) Copyright 2023 Fonticons, Inc. --><path d="M512 89.03c0-17.26-13.92-31.89-31.88-31.89h-126.7l-36.12-36.12C303.2 7.406 284.1 0 265.7 0C224.9 0 192.1 32.86 192.1 73.7c0 18.57 6.895 37.14 20.72 51.39l17.38 17.38L122.3 250.3C120.8 251.9 119.1 253.9 119.1 255.1c0 .6666 .0843 1.339 .2577 2.003L181.7 496H8C3.594 496 0 499.6 0 504S3.594 512 8 512h368c4.406 0 8-3.594 8-8s-3.594-8-8-8H198.2L136.9 258.4l104.7-104.7l7.602 7.605v126.7C249.1 305.7 263.5 320 281.1 320c8.356 0 16.28-3.281 22.31-9.242l199.3-199.3C508.8 105.4 512 97.26 512 89.03zM496 89.13c0 3.878-1.429 7.832-4.623 11.06l-199.2 199.2C288.1 302.6 285 304 281.1 304c-8.166 0-15.99-6.34-15.99-15.89V154.8L224.3 113.9C213.4 102.7 208 88.2 208 73.69C208 42.7 232.1 16 265.7 16c14.51 0 29.03 5.441 40.26 16.33l40.81 40.8h133.4C489.7 73.14 496 80.96 496 89.13zM460.2 191.4c-4.434 0-8.031 3.561-8.031 7.987c0 7.106 11.79 11.13 11.79 31.57c0 10.4-3.991 20.78-11.88 28.62c-7.801 7.849-18.14 11.81-28.49 11.81c-20.5 0-24.47-11.81-31.57-11.81c-4.378 0-8.034 3.523-8.034 7.995c0 8.518 20.67 19.78 39.63 19.78c14.47 0 28.91-5.531 39.78-16.47c10.99-10.91 16.55-25.39 16.55-39.9C479.1 212.1 468.7 191.4 460.2 191.4z"/></svg>

<svg xmlns="http://www.w3.org/2000/svg" viewBox="0 0 512 512"><!-- Font Awesome Pro 6.0.0-alpha2 by @fontawesome - https://fontawesome.com License - https://fontawesome.com/license (Commercial License) --><path d="M512 89.03C512 71.768 498.082 57.137 480.125 57.137H353.393L317.27 21.02C303.239 7.406 284.984 0 265.696 0C224.933 0 192.141 32.859 192.141 73.697C192.141 92.262 199.036 110.841 212.856 125.086L230.234 142.461L122.349 250.344C120.831 251.861 119.997 253.901 119.997 255.998C119.997 256.664 120.081 257.337 120.255 258L181.677 496H8C3.594 496 0 499.594 0 504S3.594 512 8 512H376.015C380.421 512 384.015 508.406 384.015 504S380.421 496 376.015 496H198.209L136.88 258.438L241.547 153.773L249.149 161.379V288.105C249.149 305.691 263.501 320 281.144 320C289.5 320 297.424 316.719 303.453 310.758L502.711 111.504C508.792 105.356 512 97.265 512 89.03ZM496.02 89.13C496.02 93.008 494.59 96.962 491.396 100.191L292.205 299.379C288.974 302.57 285.021 304 281.144 304C272.978 304 265.149 297.66 265.149 288.105V154.75L224.341 113.945C213.448 102.718 208.008 88.196 208.008 73.685C208.008 42.701 232.985 16 265.696 16C280.206 16 294.729 21.441 305.957 32.332L346.766 73.137H480.125C489.679 73.137 496.02 80.963 496.02 89.13ZM460.233 191.353C455.798 191.353 452.202 194.914 452.202 199.34C452.202 206.446 463.989 210.471 463.989 230.912C463.989 241.31 459.998 251.695 452.112 259.531C444.311 267.381 433.975 271.346 423.619 271.346C403.114 271.346 399.153 259.541 392.046 259.541C387.668 259.541 384.012 263.063 384.012 267.535C384.012 276.053 404.685 287.312 423.642 287.312C438.111 287.312 452.549 281.781 463.425 270.844C474.417 259.933 479.975 245.457 479.975 230.947C479.975 212.059 468.729 191.353 460.233 191.353Z "></path></svg>
